Front/img/common-section_sousmetier/illu-13.svg

<svg width="470" height="540" viewBox="0 0 470 540" fill="none" xmlns="http://www.w3.org/2000/svg">
<path d="M469.801 481C469.801 425.772 425.029 381 369.801 381H99.8008C44.5723 381 -0.199219 425.772 -0.199219 481V540H469.801V481Z" fill="#E1E1E1"/>
<path d="M208.727 488.485C200.011 492.19 190.465 521.015 186.782 534.964L181.938 535.585C187.236 521.429 197.992 491.802 198.631 486.545C199.43 479.973 183.267 469.106 175.364 445.858C169.042 427.26 180.437 412.863 188.437 406.986C196.992 413.977 212.982 437.158 216.531 434.115C220.08 431.073 203.989 413.08 194.284 401.385C207.026 388.108 229.384 380.716 237.457 379.682C241.91 388.814 251.702 406.32 255.251 403.277C258.801 400.235 251.326 385.452 247.145 378.44C268.779 373.081 292.759 371.517 302.045 371.406L296.859 420.589C291.811 419.618 279.695 417.288 271.619 415.735C261.523 413.794 257.29 419.188 260.723 420.366C263.47 421.307 283.544 427.684 293.238 430.755C291.157 445.254 282.171 459.667 277.939 465.061C267.571 460.999 245.785 452.362 241.584 450.312C236.332 447.751 228.666 451.968 233.918 454.529C238.119 456.578 258.16 468.674 267.655 474.466C239.015 494.308 219.622 483.855 208.727 488.485Z" fill="#00B67A"/>
<path d="M206.398 524.916C201.568 523.361 187.573 531.71 181.18 536.08L179 534.632C186.12 530.745 200.887 522.494 202.993 520.585C205.626 518.198 202.902 508.115 207.873 495.907C211.85 486.139 221.523 484.294 226.827 484.716C227.833 490.556 226.159 505.576 228.665 505.586C231.171 505.597 230.981 492.647 231.162 484.495C240.986 483.577 252.635 488.422 256.267 490.836C254.859 496.105 252.671 506.646 255.177 506.657C257.683 506.668 259.853 498.044 260.625 493.732C271.266 499.148 281.523 506.928 285.321 510.142L265.936 528.284C264.234 526.119 260.149 520.921 257.425 517.457C254.02 513.126 250.411 513.83 251.387 515.513C252.168 516.859 258.053 526.492 260.898 531.14C254.96 536.294 246.257 538.991 242.648 539.695C239.879 534.408 234.095 523.258 233.114 520.952C231.889 518.069 227.303 517.09 228.529 519.973C229.51 522.279 233.372 534.221 235.18 539.904C216.612 537.907 212.436 526.859 206.398 524.916Z" fill="#00B67A"/>
<path d="M336.086 211.166C299.703 208.62 274.07 235.994 265.801 250H459.801C453.016 239.496 433.404 220.843 409.234 230.265C379.02 242.042 381.565 214.349 336.086 211.166Z" fill="#E1E1E1"/>
<path d="M76.0368 380.573C62.5193 376.642 51.1212 379.401 47.606 381.039L46.9297 355.651C59.5718 354.195 71.6428 357.524 76.0368 359.482V380.573Z" fill="#FF8139"/>
<path d="M62.8398 381.562L76.0365 382.804L61.2128 539.998L47.9677 539.625L62.8398 381.562Z" fill="#FF8139"/>
<path d="M60.3897 514.402L48.5604 519.29L47.7812 496.906C50.1188 497.473 51.8896 498.748 53.3063 500.448C54.4396 501.808 53.873 500.377 55.0063 500.943C59.0297 499.47 61.4994 496.316 61.8063 494.285C64.2997 503.295 61.9008 511.451 60.3897 514.402Z" fill="#00181B"/>
<path d="M61.2529 317.355C68.3872 307.793 93.8431 304.919 105.633 298.177C110.02 295.669 113.314 282.375 113.247 273.634C103.536 267.93 94.9644 244.822 94.8633 224.624C94.7385 199.697 107.005 179.68 125.607 179.587C144.209 179.494 156.664 199.596 156.789 224.522C156.889 244.35 152.587 264.476 141.256 271.695C141.3 280.4 143.315 289.953 147.785 292.451C159.642 299.074 176.272 296.524 182.937 306.387C201.132 333.362 198.405 363.927 198.405 363.927L57.5952 395.454C57.5952 395.454 41.936 349.854 61.2529 317.355Z" fill="#E2BBA6"/>
<path d="M154.967 257.415C154.603 253.053 157.239 238.938 158.602 232.426L156.33 233.789C155.876 238.484 154.331 248.419 151.786 250.599C148.606 253.326 135.884 245.602 126.343 246.51C116.802 247.419 107.715 253.326 102.717 253.326C98.7192 253.326 96.811 241.816 96.3566 236.061L94.0849 233.789C94.9936 236.515 98.174 256.052 98.6283 261.958C99.0827 267.865 105.898 282.404 128.161 281.04C150.423 279.677 155.421 262.867 154.967 257.415Z" fill="#00181B"/>
<path d="M128.04 208.663C149.697 205.619 156.887 230.88 156.16 240.149C163.918 210.85 141.412 201.344 129.19 200.253L94.891 207.663L95.8369 238.256L99.0821 214.889C115.058 216.387 120.619 208.663 128.04 208.663Z" fill="#CBA895"/>
<path opacity="0.1" d="M132.441 274.762C128.883 275.564 125.194 275.582 121.628 274.816C121.628 274.816 126.838 280.045 132.441 274.762Z" fill="black"/>
<path d="M127.872 203.721C148.79 199.713 157.046 217.815 156.099 239.699C160.421 228.234 175.142 198.805 160.603 191.535C155.71 189.089 150.338 189.986 142.685 185.81C136.522 182.448 132.789 175.65 121.529 175.633C109.719 175.615 99.0808 190.476 94.723 193.353C78.2896 200.069 91.4654 230.011 96.2124 238.988L96.7825 231.709L99.5115 211.338C109.765 212.958 121.355 204.969 127.872 203.721Z" fill="#00181B"/>
<path d="M159.24 199.259C164.692 202.894 163.935 216.221 162.875 222.43C174.688 188.809 159.24 191.535 148.336 188.355C137.431 185.174 141.066 182.448 129.253 176.996C119.803 172.635 110.171 178.814 106.536 182.448C110.928 179.722 122.075 176.724 131.525 186.537C143.338 198.805 152.425 194.716 159.24 199.259Z" fill="#00181B"/>
<path d="M61.1504 539.995L66.079 487.754L182.481 491.318L188.916 539.994L130.409 539.994C127.864 534.882 123.468 525.275 121.75 526.875C120.032 528.475 115.92 536.217 114.885 539.995L61.1504 539.995Z" fill="#142B5A"/>
<path d="M147.975 291.461C134.075 306.625 115.154 299.886 107.432 294.621C95.3919 294.621 68.6448 299.631 57.9756 319.673C53.3672 328.331 47.9683 346.282 46.9531 353.426L76.9926 364.847L65.8206 491.087C120.422 508.032 161.023 497.472 183.414 491.087C183.414 488.212 179.339 433.545 179.339 402.851C179.339 402.851 180.046 373.26 180.046 364.847C189.314 346.313 197.641 339.733 202.205 336.925C201.854 335.345 202.211 326.957 194.761 314.46C184.863 297.857 160.963 293.216 147.975 291.461Z" fill="#FAFAFC"/>
<rect x="211.805" y="121.734" width="6" height="248.166" transform="rotate(-11.3638 211.805 121.734)" fill="#C4C4C4"/>
<path d="M228.3 283.018C228.239 284.277 226.555 287.535 222.902 291.899L242.031 299.14L246.797 285.307C247.547 284.293 247.328 280.79 247.531 276.595C247.786 271.352 241.953 261.609 245.175 260.189C248.397 258.769 258.629 264.521 259.331 260.877C260.034 257.232 256.888 257.079 255.341 256.478C253.793 255.878 240.442 249.448 238.268 250.919C236.094 252.39 229.42 259.949 229.268 263.095C229.115 266.241 230.357 273.133 228.656 275.678C226.956 278.223 228.376 281.445 228.3 283.018Z" fill="#E2BBA6"/>
<path d="M252.682 251.848C250.625 252.442 241.891 259.252 237.781 262.583C237.781 262.583 231.752 266.888 231.396 273.573C231.041 280.259 237.013 284.772 237.013 284.772C240.371 287.123 247.593 291.573 249.615 290.56C252.143 289.294 257.897 288.81 258.112 285.105C258.327 281.399 260.942 281.179 262.204 277.386C263.465 273.592 261.808 272.678 261.632 270.586C261.456 268.493 263.417 266.748 261.06 263.786C258.704 260.823 259.095 259.21 258.963 257.64C258.831 256.071 255.253 251.105 252.682 251.848Z" fill="#E2BBA6"/>
<path d="M149.757 178.577C115.292 162.437 74.3276 183.994 65.0619 195.54C53.302 130.002 88.9987 75.695 110.892 60.327L296.497 51.9182L306.642 51.4587C365.133 54.4343 388.086 104.024 387.683 136.67C349.819 111.983 324.882 135.514 317.147 150.366C279.204 117.282 242.763 145.611 232.147 160.593C189.39 140.928 158.153 161.695 149.757 178.577Z" fill="#152D5D"/>
<path d="M194.879 21.2971C140.237 30.4461 102.712 63.8826 97.6533 73.7515L376.301 93.501C345.75 37.828 277.339 7.49044 194.879 21.2971Z" fill="#152D5D"/>
<path d="M209.427 378.4C217.955 369.873 236.066 320.815 243.058 296.286L228.926 284.483C206.947 310.161 182.996 350.072 179.976 361.209C176.015 375.819 196.407 391.418 209.427 378.4Z" fill="#E2BBA6"/>
<path d="M52.7204 399.235C53.9801 389.416 53.7702 377.067 52.7204 372.93L75.1531 385.52L69.3652 453.167C65.7477 461.367 59.1639 480.009 61.7684 488.98C64.373 497.952 52.3833 509.331 46.3358 499.018C43.0801 495.762 37.2877 499.38 37.2877 505.891C37.2877 511.1 43.3198 516.502 46.3358 518.552C45.2506 519.879 41.0256 522.807 34.8126 518.552C27.7831 513.739 28.8729 508.791 27.5898 502.81C27.5898 493.528 29.9069 488.298 39.1978 481.916C49.3441 474.946 45.5585 462.707 47.4341 437.621C48.9559 417.267 50.6033 415.735 52.7204 399.235Z" fill="#E2BBA6"/>
<path d="M62.6172 502.576C63.6164 497.247 62.2009 491.195 61.3682 488.836L53.0353 501.183C53.995 503.539 54.8209 508.469 54.5573 510.734C54.0884 514.762 52.0235 516.185 51.4535 517.61C50.9974 518.75 52.9343 518.621 53.6658 518.397C59.911 515.066 61.3682 509.237 62.6172 502.576Z" fill="#E2BBA6"/>
<rect x="45.3809" y="355.508" width="3.14433" height="25.8691" rx="1.57216" fill="#FF8139"/>
<rect x="72.1523" y="357.164" width="3.14433" height="25.8691" rx="1.57216" fill="#FF8139"/>
<ellipse cx="45.3795" cy="508.193" rx="9.15297" ry="11.7631" fill="#FF8139"/>
<path d="M47.623 431.152L53.6245 384.367L74.9743 388.312L70.6953 436.408L47.623 431.152Z" fill="#1C3B78"/>
<path d="M52.8047 389.504L73.9276 398.457" stroke="#FAFAFC"/>
<path d="M51.7949 398.595L69.9574 396.637" stroke="#FAFAFC"/>
<path d="M51.2676 404.191C54.4779 405.732 63.3271 408.958 73.0417 409.536" stroke="#FAFAFC"/>
<path d="M49.9492 413.871C51.3212 415.315 57.687 418.551 72.1747 419.938" stroke="#FAFAFC"/>
<path d="M48.7754 422.246C51.5354 424.028 59.9059 427.764 71.3078 428.457" stroke="#FAFAFC"/>
<path d="M79.0167 355.508C76.3816 357.748 74.8445 357.649 74.4053 357.319L74.1387 382.977C75.0645 382.845 75.4062 382.518 75.4613 382.371L79.0167 355.508Z" fill="#FF8139"/>
</svg>

<svg xmlns="http://www.w3.org/2000/svg" fill="none" viewBox="0 0 470 540"><path fill="#E1E1E1" d="M469.801 481c0-55.228-44.772-100-100-100h-270c-55.229 0-100 44.772-100 100v59h470v-59z"/><path fill="#00B67A" d="M208.727 488.485c-8.716 3.705-18.262 32.53-21.945 46.479l-4.844.621c5.298-14.156 16.054-43.783 16.693-49.04.799-6.572-15.364-17.439-23.267-40.687-6.322-18.598 5.073-32.995 13.073-38.872 8.555 6.991 24.545 30.172 28.094 27.129 3.549-3.042-12.542-21.035-22.247-32.73 12.742-13.277 35.1-20.669 43.173-21.703 4.453 9.132 14.245 26.638 17.794 23.595 3.55-3.042-3.925-17.825-8.106-24.837 21.634-5.359 45.614-6.923 54.9-7.034l-5.186 49.183-25.24-4.854c-10.096-1.941-14.329 3.453-10.896 4.631 2.747.941 22.821 7.318 32.515 10.389-2.081 14.499-11.067 28.912-15.299 34.306-10.368-4.062-32.154-12.699-36.355-14.749-5.252-2.561-12.918 1.656-7.666 4.217 4.201 2.049 24.242 14.145 33.737 19.937-28.64 19.842-48.033 9.389-58.928 14.019z"/><path fill="#00B67A" d="M206.398 524.916c-4.83-1.555-18.825 6.794-25.218 11.164l-2.18-1.448c7.12-3.887 21.887-12.138 23.993-14.047 2.633-2.387-.091-12.47 4.88-24.678 3.977-9.768 13.65-11.613 18.954-11.191 1.006 5.84-.668 20.86 1.838 20.87 2.506.011 2.316-12.939 2.497-21.091 9.824-.918 21.473 3.927 25.105 6.341-1.408 5.269-3.596 15.81-1.09 15.821 2.506.011 4.676-8.613 5.448-12.925 10.641 5.416 20.898 13.196 24.696 16.41l-19.385 18.142-8.511-10.827c-3.405-4.331-7.014-3.627-6.038-1.944.781 1.346 6.666 10.979 9.511 15.627-5.938 5.154-14.641 7.851-18.25 8.555-2.769-5.287-8.553-16.437-9.534-18.743-1.225-2.883-5.811-3.862-4.585-.979.981 2.306 4.843 14.248 6.651 19.931-18.568-1.997-22.744-13.045-28.782-14.988z"/><path fill="#E1E1E1" d="M336.086 211.166c-36.383-2.546-62.016 24.828-70.285 38.834h194c-6.785-10.504-26.397-29.157-50.567-19.735-30.214 11.777-27.669-15.916-73.148-19.099z"/><path fill="#FF8139" d="M76.037 380.573c-13.518-3.931-24.916-1.172-28.431.466l-.676-25.388c12.642-1.456 24.713 1.873 29.107 3.831v21.091zM62.84 381.562l13.197 1.242-14.824 157.194-13.245-.373L62.84 381.562z"/><path fill="#00181B" d="M60.39 514.402l-11.83 4.888-.779-22.384c2.338.567 4.109 1.842 5.525 3.542 1.134 1.36.567-.071 1.7.495 4.024-1.473 6.493-4.627 6.8-6.658 2.494 9.01.095 17.166-1.416 20.117z"/><path fill="#E2BBA6" d="M61.253 317.355c7.134-9.562 32.59-12.436 44.38-19.178 4.387-2.508 7.681-15.802 7.614-24.543-9.711-5.704-18.283-28.812-18.384-49.01-.124-24.927 12.142-44.944 30.744-45.037 18.602-.093 31.057 20.009 31.182 44.935.1 19.828-4.202 39.954-15.533 47.173.044 8.705 2.059 18.258 6.529 20.756 11.857 6.623 28.487 4.073 35.152 13.936 18.195 26.975 15.468 57.54 15.468 57.54l-140.81 31.527s-15.659-45.6 3.658-78.099z"/><path fill="#00181B" d="M154.967 257.415c-.364-4.362 2.272-18.477 3.635-24.989l-2.272 1.363c-.454 4.695-1.999 14.63-4.544 16.81-3.18 2.727-15.902-4.997-25.443-4.089-9.541.909-18.628 6.816-23.626 6.816-3.998 0-5.906-11.51-6.36-17.265l-2.272-2.272c.909 2.726 4.089 22.263 4.543 28.169.455 5.907 7.27 20.446 29.533 19.082 22.262-1.363 27.26-18.173 26.806-23.625z"/><path fill="#CBA895" d="M128.04 208.663c21.657-3.044 28.847 22.217 28.12 31.486 7.758-29.299-14.748-38.805-26.97-39.896l-34.299 7.41.946 30.593 3.245-23.367c15.976 1.498 21.537-6.226 28.958-6.226z"/><path fill="#000" d="M132.441 274.762a25.15 25.15 0 01-10.813.054s5.21 5.229 10.813-.054z" opacity=".1"/><path fill="#00181B" d="M127.872 203.721c20.918-4.008 29.174 14.094 28.227 35.978 4.322-11.465 19.043-40.894 4.504-48.164-4.893-2.446-10.265-1.549-17.918-5.725-6.163-3.362-9.896-10.16-21.156-10.177-11.81-.018-22.448 14.843-26.806 17.72-16.433 6.716-3.258 36.658 1.49 45.635l.57-7.279 2.728-20.371c10.254 1.62 21.844-6.369 28.361-7.617z"/><path fill="#00181B" d="M159.24 199.259c5.452 3.635 4.695 16.962 3.635 23.171 11.813-33.621-3.635-30.895-14.539-34.075-10.905-3.181-7.27-5.907-19.083-11.359-9.45-4.361-19.082 1.818-22.717 5.452 4.392-2.726 15.539-5.724 24.989 4.089 11.813 12.268 20.9 8.179 27.715 12.722z"/><path fill="#142B5A" d="M61.15 539.995l4.929-52.241 116.402 3.564 6.435 48.676h-58.507c-2.545-5.112-6.941-14.719-8.659-13.119-1.718 1.6-5.83 9.342-6.865 13.12H61.15z"/><path fill="#FAFAFC" d="M147.975 291.461c-13.9 15.164-32.821 8.425-40.543 3.16-12.04 0-38.787 5.01-49.456 25.052-4.609 8.658-10.008 26.609-11.023 33.753l30.04 11.421-11.172 126.24c54.601 16.945 95.202 6.385 117.593 0 0-2.875-4.075-57.542-4.075-88.236 0 0 .707-29.591.707-38.004 9.268-18.534 17.595-25.114 22.159-27.922-.351-1.58.006-9.968-7.444-22.465-9.898-16.603-33.798-21.244-46.786-22.999z"/><path fill="#C4C4C4" d="M211.805 121.734l5.882-1.182 48.898 243.3-5.882 1.183z"/><path fill="#E2BBA6" d="M228.3 283.018c-.061 1.259-1.745 4.517-5.398 8.881l19.129 7.241 4.766-13.833c.75-1.014.531-4.517.734-8.712.255-5.243-5.578-14.986-2.356-16.406 3.222-1.42 13.454 4.332 14.156.688.703-3.645-2.443-3.798-3.99-4.399-1.548-.6-14.899-7.03-17.073-5.559-2.174 1.471-8.848 9.03-9 12.176-.153 3.146 1.089 10.038-.612 12.583-1.7 2.545-.28 5.767-.356 7.34z"/><path fill="#E2BBA6" d="M252.682 251.848c-2.057.594-10.791 7.404-14.901 10.735 0 0-6.029 4.305-6.385 10.99-.355 6.686 5.617 11.199 5.617 11.199 3.358 2.351 10.58 6.801 12.602 5.788 2.528-1.266 8.282-1.75 8.497-5.455.215-3.706 2.83-3.926 4.092-7.719 1.261-3.794-.396-4.708-.572-6.8-.176-2.093 1.785-3.838-.572-6.8-2.356-2.963-1.965-4.576-2.097-6.146-.132-1.569-3.71-6.535-6.281-5.792z"/><path fill="#152D5D" d="M149.757 178.577c-34.465-16.14-75.43 5.417-84.695 16.963-11.76-65.538 23.937-119.845 45.83-135.213l185.605-8.409 10.145-.46c58.491 2.976 81.444 52.566 81.041 85.212-37.864-24.687-62.801-1.156-70.536 13.696-37.943-33.084-74.384-4.755-85 10.227-42.757-19.665-73.994 1.102-82.39 17.984z"/><path fill="#152D5D" d="M194.879 21.297c-54.642 9.15-92.167 42.586-97.226 52.454l278.648 19.75c-30.551-55.673-98.962-86.01-181.422-72.204z"/><path fill="#E2BBA6" d="M209.427 378.4c8.528-8.527 26.639-57.585 33.631-82.114l-14.132-11.803c-21.979 25.678-45.93 65.589-48.95 76.726-3.961 14.61 16.431 30.209 29.451 17.191zM52.72 399.235c1.26-9.819 1.05-22.168 0-26.305l22.433 12.59-5.788 67.647c-3.617 8.2-10.201 26.842-7.597 35.813 2.605 8.972-9.385 20.351-15.432 10.038-3.256-3.256-9.048.362-9.048 6.873 0 5.209 6.032 10.611 9.048 12.661-1.085 1.327-5.31 4.255-11.523 0-7.03-4.813-5.94-9.761-7.223-15.742 0-9.282 2.317-14.512 11.608-20.894 10.146-6.97 6.36-19.209 8.236-44.295 1.522-20.354 3.17-21.886 5.286-38.386z"/><path fill="#E2BBA6" d="M62.617 502.576c1-5.329-.416-11.381-1.249-13.74l-8.333 12.347c.96 2.356 1.786 7.286 1.522 9.551-.469 4.028-2.534 5.451-3.104 6.876-.456 1.14 1.481 1.011 2.213.787 6.245-3.331 7.702-9.16 8.951-15.821z"/><rect width="3.144" height="25.869" x="45.381" y="355.508" fill="#FF8139" rx="1.572"/><rect width="3.144" height="25.869" x="72.152" y="357.164" fill="#FF8139" rx="1.572"/><ellipse cx="45.38" cy="508.193" fill="#FF8139" rx="9.153" ry="11.763"/><path fill="#1C3B78" d="M47.623 431.152l6.002-46.785 21.35 3.945-4.28 48.096-23.072-5.256z"/><path stroke="#FAFAFC" d="M52.805 389.504l21.123 8.953M51.795 398.595l18.162-1.958M51.268 404.191c3.21 1.541 12.06 4.767 21.774 5.345M49.95 413.871c1.371 1.444 7.737 4.68 22.225 6.067M48.775 422.246c2.76 1.782 11.13 5.518 22.533 6.211"/><path fill="#FF8139" d="M79.017 355.508c-2.635 2.24-4.172 2.141-4.612 1.811l-.266 25.658c.925-.132 1.267-.459 1.322-.606l3.556-26.863z"/></svg>
